X:9746
T:Loch Lomond
M:4/4
R:march
L:1/8
Z:added by Alf warnock@magma.ca
K:G
D2|"G"G4 GA/2|"G7"B4 BA/2|"C"G4 G3E|"G"D4 "D7"D4|
"G"G4 "C"G3G|"G"G4 "G7"B3d|"C"e8|"G"d4 "G7"d4|
"C"e4 e3d|"G"B4 B2d2|"Am"c2B2 A2G2|"C"E4 "D7"D2E2|
"Em"G4 "G7"B2d2|"C"e4 "G"d2B2|"Am"A8|"G"G6|]


